X:63
T:Turnham Green frolick
M:2/4
L:1/8
B:Thompson's Compleat Collection of 200 Favourite Country Dances, vol. 2 (London, 1765)
Z:Transcribed and edited by Flynn Titford-Mock, 2007
Z:abc's:AK/Fiddler's Companion
K:G
D | G(B/c/d)B | eAAB | G(B/c/d)B | cegc | BdgB | aAAB | G(B/c/d)B | ce d :|
|: (g/a/) | (b/a/g/f/) gd | dBgB | dBgB | aA A(g/a/) | (b/a/g/f/) gB | dBgB | A(B/c/B)A | G[G,G] [G,G] :|

